X: 25555
T: Marino, The
R: waltz
M: 3/4
K: Gmajor
g2 d3 B|F4 c>F|E4 B>E|D6|
C2 D3 E|F2 D3 A|G2 D3 B|A3 d e>f|
g2 d2 B2|F4 f2|e2 3c A|E4 e2|
d2 c2 A2|F2 D3 B|G6|G3:|
|:D2 E2 F2|G2 A2 B2|B6|F6|
E6|c4 E2|G4 F>E|F6|
C2 D2 E2|F2 D2 A2|G2 D2 d2|e4 d2|
c2 A2 F2|D4 B2|G6|G3:|

